/* XPM */
static char * vortex_32_xpm[] = {
"32 32 379 2",
"!!	c None",
"!#	c #000000",
"!$	c #000001",
"!%	c #000101",
"!&	c #010202",
"!'	c #020203",
"!(	c #020303",
"!)	c #020304",
"!*	c #030405",
"!+	c #040406",
"!,	c #040507",
"!-	c #040608",
"!.	c #060709",
"!/	c #06080A",
"!0	c #070B0E",
"!1	c #090B0D",
"!2	c #0A0E12",
"!3	c #0A1B25",
"!4	c #0A2130",
"!5	c #0A222F",
"!6	c #0B0D11",
"!7	c #0B0F13",
"!8	c #0B0F14",
"!9	c #0B0F15",
"!:	c #0B1015",
"!;	c #0B1A24",
"!<	c #0B1E29",
"!=	c #0C0F15",
"!>	c #0C1014",
"!?	c #0C1015",
"!@	c #0C1016",
"!A	c #0C1115",
"!B	c #0C1116",
"!C	c #0C1A26",
"!D	c #0C1F2D",
"!E	c #0D1015",
"!F	c #0D1016",
"!G	c #0D1115",
"!H	c #0D1116",
"!I	c #0D1117",
"!J	c #0D1216",
"!K	c #0D1217",
"!L	c #0D1F2A",
"!M	c #0D547C",
"!N	c #0D5986",
"!O	c #0E1116",
"!P	c #0E1117",
"!Q	c #0E1216",
"!R	c #0E1217",
"!S	c #0E1218",
"!T	c #0E1318",
"!U	c #0E1319",
"!V	c #0E212C",
"!W	c #0F1218",
"!X	c #0F1318",
"!Y	c #0F1319",
"!Z	c #0F131A",
"![	c #0F1419",
"!]	c #0F141A",
"!^	c #0F2432",
"!_	c #0F2734",
"!`	c #101319",
"!a	c #101419",
"!b	c #10141A",
"!c	c #10141B",
"!d	c #10151A",
"!e	c #10151B",
"!f	c #10212C",
"!g	c #10222E",
"!h	c #10222F",
"!i	c #102430",
"!j	c #11141B",
"!k	c #11151A",
"!l	c #11151B",
"!m	c #11151C",
"!n	c #11161B",
"!o	c #11161C",
"!p	c #11161D",
"!q	c #12151C",
"!r	c #12161C",
"!s	c #12161D",
"!t	c #12171D",
"!u	c #12171E",
"!v	c #12222F",
"!w	c #122839",
"!x	c #122A3E",
"!y	c #123146",
"!z	c #123147",
"!{	c #123E5C",
"!|	c #13161D",
"!}	c #13171D",
"!~	c #13171E",
"#!	c #13181E",
"##	c #13181F",
"#$	c #132433",
"#%	c #13293B",
"#&	c #132A3C",
"#'	c #133047",
"#(	c #133248",
"#)	c #13334A",
"#*	c #13334B",
"#+	c #13344C",
"#,	c #133B55",
"#-	c #134160",
"#.	c #14181F",
"#/	c #14191E",
"#0	c #14191F",
"#1	c #141920",
"#2	c #142A3D",
"#3	c #142A3E",
"#4	c #142C41",
"#5	c #143249",
"#6	c #151920",
"#7	c #151A20",
"#8	c #151A21",
"#9	c #15202A",
"#:	c #152432",
"#;	c #152836",
"#<	c #152B3F",
"#=	c #153146",
"#>	c #162332",
"#?	c #162939",
"#@	c #162E40",
"#A	c #162E42",
"#B	c #165076",
"#C	c #165A88",
"#D	c #172431",
"#E	c #17425C",
"#F	c #17496B",
"#G	c #174A6E",
"#H	c #17547D",
"#I	c #17567F",
"#J	c #175983",
"#K	c #176091",
"#L	c #182430",
"#M	c #182530",
"#N	c #182B3B",
"#O	c #183950",
"#P	c #184664",
"#Q	c #184665",
"#R	c #184A6E",
"#S	c #193D57",
"#T	c #193E56",
"#U	c #194465",
"#V	c #194767",
"#W	c #194A6D",
"#X	c #194C70",
"#Y	c #194D73",
"#Z	c #194E73",
"#[	c #19527B",
"#]	c #1A3D59",
"#^	c #1A4665",
"#_	c #1A4766",
"#`	c #1A4D71",
"#a	c #1A4F73",
"#b	c #1A72AA",
"#c	c #1A74AE",
"#d	c #1A88CE",
"#e	c #1B3B4F",
"#f	c #1B3F57",
"#g	c #1B405A",
"#h	c #1B405B",
"#i	c #1B4464",
"#j	c #1B4665",
"#k	c #1B4A6A",
"#l	c #1B4D6E",
"#m	c #1B4E6D",
"#n	c #1B5B85",
"#o	c #1B79B6",
"#p	c #1C537A",
"#q	c #1C557C",
"#r	c #1C5E8B",
"#s	c #1C608D",
"#t	c #1C6696",
"#u	c #1C75B1",
"#v	c #1C7CB9",
"#w	c #1C7CBA",
"#x	c #1C7EBC",
"#y	c #1C7FBF",
"#z	c #1C80C1",
"#{	c #1C81BF",
"#|	c #1C83C3",
"#}	c #1C83C5",
"#~	c #1C84C7",
"$!	c #1C85C8",
"$#	c #1C85C9",
"$$	c #1C87CC",
"$%	c #1C88CF",
"$&	c #1C89CF",
"$'	c #1C89D0",
"$(	c #1C8AD0",
"$)	c #1C8AD1",
"$*	c #1C8CD4",
"$+	c #1C8ED6",
"$,	c #1C8FD8",
"$-	c #1D4A69",
"$.	c #1D5170",
"$/	c #1D5373",
"$0	c #1D5379",
"$1	c #1D5C87",
"$2	c #1D608E",
"$3	c #1D6591",
"$4	c #1D689D",
"$5	c #1D6BA2",
"$6	c #1D72AD",
"$7	c #1E4763",
"$8	c #1E4A68",
"$9	c #1E5374",
"$:	c #1E5477",
"$;	c #1E557C",
"$<	c #1E5980",
"$=	c #1E6496",
"$>	c #1E6A9D",
"$?	c #1E6DA2",
"$@	c #1E6FA5",
"$A	c #1E74B1",
"$B	c #1E78B4",
"$C	c #1E7AB8",
"$D	c #1F5172",
"$E	c #1F6A9B",
"$F	c #1F71A6",
"$G	c #1F78B2",
"$H	c #1F78B6",
"$I	c #1F79BB",
"$J	c #1F7DBB",
"$K	c #206DA1",
"$L	c #2074A8",
"$M	c #2088CA",
"$N	c #21648E",
"$O	c #2172A6",
"$P	c #2172A8",
"$Q	c #2172A9",
"$R	c #2176AD",
"$S	c #2177AE",
"$T	c #2178B2",
"$U	c #217CBB",
"$V	c #217DBB",
"$W	c #217EBB",
"$X	c #217FBC",
"$Y	c #2180C0",
"$Z	c #2189CD",
"$[	c #218AD1",
"$]	c #218BD3",
"$^	c #218CD2",
"$_	c #218DD7",
"$`	c #2191DC",
"$a	c #225476",
"$b	c #226DA0",
"$c	c #226EA3",
"$d	c #227AB8",
"$e	c #227DB8",
"$f	c #227DBB",
"$g	c #227EB8",
"$h	c #2280BD",
"$i	c #2281BF",
"$j	c #2282C0",
"$k	c #2282C1",
"$l	c #2283C1",
"$m	c #2283C3",
"$n	c #2284C2",
"$o	c #2284C3",
"$p	c #2284C4",
"$q	c #2285C3",
"$r	c #2285C6",
"$s	c #2285C7",
"$t	c #2286C7",
"$u	c #2287C9",
"$v	c #2287CA",
"$w	c #2288CA",
"$x	c #2289CB",
"$y	c #2289CD",
"$z	c #228ACD",
"${	c #228ACE",
"$|	c #228BCF",
"$}	c #228BD0",
"$~	c #228BD1",
"%!	c #228CD3",
"%#	c #228DD2",
"%$	c #228DD4",
"%%	c #228ED4",
"%&	c #228ED7",
"%'	c #228FD8",
"%(	c #2290DA",
"%)	c #2290DB",
"%*	c #2291D9",
"%+	c #2293DD",
"%,	c #2293DE",
"%-	c #2293E0",
"%.	c #2295E1",
"%/	c #2296E4",
"%0	c #2296E5",
"%1	c #2297E4",
"%2	c #236391",
"%3	c #236798",
"%4	c #236995",
"%5	c #236FA5",
"%6	c #2370A2",
"%7	c #237BB3",
"%8	c #237CB8",
"%9	c #25709F",
"%:	c #257AB3",
"%;	c #257CBA",
"%<	c #2584C2",
"%=	c #266F9F",
"%>	c #267DB6",
"%?	c #2686C7",
"%@	c #268ACB",
"%A	c #268ED2",
"%B	c #268ED3",
"%C	c #268FD2",
"%D	c #268FD3",
"%E	c #2690D5",
"%F	c #2691D8",
"%G	c #2692D8",
"%H	c #2692DA",
"%I	c #2693DA",
"%J	c #2694DC",
"%K	c #2694DD",
"%L	c #2696DE",
"%M	c #2696E0",
"%N	c #2696E1",
"%O	c #2697E1",
"%P	c #2699E8",
"%Q	c #276893",
"%R	c #2879AB",
"%S	c #287AB0",
"%T	c #287EB9",
"%U	c #2888CA",
"%V	c #288ED3",
"%W	c #2991D7",
"%X	c #2993DC",
"%Y	c #2A7AAE",
"%Z	c #2A83BE",
"%[	c #2A84BC",
"%]	c #2A84BD",
"%^	c #2A86C0",
"%_	c #2A86C1",
"%`	c #2A87C2",
"%a	c #2A87C3",
"%b	c #2A88C4",
"%c	c #2A88C6",
"%d	c #2A89C5",
"%e	c #2A89C6",
"%f	c #2A89C7",
"%g	c #2A8AC6",
"%h	c #2A8AC7",
"%i	c #2A8BC9",
"%j	c #2A8BCB",
"%k	c #2A8CC9",
"%l	c #2A8CCA",
"%m	c #2A8CCB",
"%n	c #2A8CCC",
"%o	c #2A8DCD",
"%p	c #2A8ECD",
"%q	c #2A8ECF",
"%r	c #2A8FCF",
"%s	c #2A8FD0",
"%t	c #2A8FD1",
"%u	c #2A90D2",
"%v	c #2A90D5",
"%w	c #2A91D3",
"%x	c #2A91D5",
"%y	c #2A92D6",
"%z	c #2A93D7",
"%{	c #2A93D9",
"%|	c #2A94DA",
"%}	c #2A95D9",
"%~	c #2A95DB",
"&!	c #2A95DC",
"&#	c #2A96DD",
"&$	c #2A96DF",
"&%	c #2A98E0",
"&&	c #2A98E3",
"&'	c #2A99E1",
"&(	c #2A99E2",
"&)	c #2A99E5",
"&*	c #2A9AE3",
"&+	c #2A9BE6",
"&,	c #2D8BCB",
"!!!!!!!#!,!7!o!s!s!t!t!u!~#!#####.#0#1#1#1#8#8#8#8#8!}!1!%!!!!!!",
"!!!!!)!T!l!m!o!o!s!s!t!t!u!~#!#####.#0#1#1#1#8#8#8#8#8#8!}!*!!!!",
"!!!)!c!e!e!l!m!o!e!m!m!o!o!p!~#!#####.#/#######1#7#8#8#8#8#8!(!!",
"!$!R!b!c!e!e!l#9$.$/$a%Q%=%9#?!|!}!u!t#L#e$7$9#f#M#6#8#8#8#8!}!#",
"!/!]!b!b!c!e!]$8%[%^%b%h%i$-!n!o#D$D%Y%k%h%b%^%[$N#0#8#8#8#8#8!.",
"!O![!]!b!b!c![%R%`%d%i%o$<!j!l$:&,%w%u%s%p%l%g%`%]#N#1#8#8#8#8!Q",
"!Y!Y![!]!b!a#;%_%e%m%r%>![#>$O&!&!%~%}%z%w%s%n%f%a$:###8#8#8#8#8",
"!T!Y!Y![!]!Y#T%c%j%t%x#S#:%Z&'&(&*&(&%&#%|%y%t%o%f%S!~#0#8#8#8#8",
"!T!T!Y!Y![!U$0%j%s%y%:!X$b&+%V$2#h!l!l!e!j#A#j%4%T%c#g#.#1#8#8#8",
"!S!T!T!Y!Y!T#p%q%v%|$;#U%?#V!b!e!m!q!h$c$R#^!n!o!o#_#m#.#1#1#8#8",
"!S!S!T!T!Y!S#q%C%{&$#3#`!]!b!l!o!o!s!r!n%5&)%U#i!s!t!~#0#1#1#1#8",
"!R!S!S!T!T!W#O%E%J%W!X!Z!e!e!l!m!o!o!s!q!l$T&&%K%3!o!u#.#0#1#1#1",
"!K!R!S!S!R!R!L%F%L%;!X!b!c!e!e!l!m!o!o!s!m!^%X&$%G%7!i!u#.#0#1#1",
"!I!K!R!I$3!J!J$f%M$U!U!b!b!c!e!e!l!m!o!o!s!m#a%O%I%A%2!s#!#.#0#1",
"!H!I!J#$$q#Q!J#F%N$W!T!]!b!b!e!e!e!l!m!o!o!q!j$Z%H%D%@#l!u###.#0",
"!H!H!F#E$o%<!D!H$M$V!S![!]!b!b!c!e!e!l!m!o!l#<#Y%H%B$x$X!g!~###.",
"!B!H!?#n$n$w$Q!?#,%P!S!Y![!]!b!b!c!e!e!l!m!e$=!^%*%#$x$o#k!t####",
"!@!B!?$L$l$u$|#t!?#G#'!Y!Y![!]!b!b!c!e!e!b#]$d![%8$}$u$n%6!r#!##",
"!?!@!5$e$i$s$z%%$J#&!w!R!Y!Y![!]!b!b!c!d![$I$H![$?${$t$j$g!f!~#!",
"!?!?!;$E$h$m$v$~%'$^#[!J!K!W!Y![!]!b!b!Z#Z%1$B!Y#I$w$p$h$S!_!u!~",
"!?!?!?!3#r#{$r$y%!%(%,#d#C#)!R!S!T!Y!Y#+%/%-#J!`#H$s$k$P#@!o!t!u",
"!8!?!?!?!9!z$F$!$&%$%(%+%.%0$`$C$6#5#*$_%,%(#=![#s#|$K!V!m!s!t!t",
"!8!8!?!?!?!=!:!x#B$@$G%&$[$A#K#-!H#R$]%)%&$Y!Y!]$>$1!b!e!o!s!s!t",
"!8!8!8!?!?!?!@!A!?!?!@!A!G!F!F#%$5$,$+$*$(#X!Y!b#(!]!k!m!o!o!s!s",
"!8!8!8!8!?!?!?!@!B!H!E!@!<#P$4$)$)$'$%$$#o!T!a!b!c!e!e!l!m!o!o!s",
"!8!8!8!8!8!?!?!?!@!B!v#c#}#~$!$#$#$!#~#x#4!T!]!b!b!c!e!e!l!m!o!o",
"!2!8!8!8!8!8!?!?!?!@!?!y#b#y#z#z#z#z#y!{!S!Y![!]!b!b!c!e!e!l!m!7",
"!-!8!8!8!8!8!8!?!?!?!@!?!>#W#v#w#w#u#2!K!T!Y!Y![!]!b!b!c!e!e!l!+",
"!#!2!8!8!8!8!8!8!?!?!?!@!A!?!4!N!M!C!P!S!T!T!Y!Y![!]!b!b!e!e!T!#",
"!!!'!8!8!8!8!8!8!8!?!?!?!@!B!G!?!@!J!R!S!S!T!T!Y!Y![!]!b!b!c!'!!",
"!!!!!&!2!8!8!8!8!8!8!?!?!?!@!B!H!H!I!K!R!S!S!T!T!Y!Y![!]!S!'!!!!",
"!!!!!!!#!*!0!8!8!8!8!8!?!?!?!@!B!H!H!I!K!R!S!S!T!T!Y!6!*!#!!!!!!"
};
